public/external-logos/plaid-logo.svg

<svg width="115" height="43" viewBox="0 0 115 43" fill="none" xmlns="http://www.w3.org/2000/svg">
<path d="M55.7607 20.9338H54.1032V17.2H55.597C57.3977 17.2 58.3185 17.8325 58.3185 19.0771C58.298 20.3217 57.4591 20.9338 55.7607 20.9338ZM60.3443 14.7924C59.3826 13.9967 57.7455 13.5886 55.4333 13.5886H50.1948V29.544H54.1032V24.5452H55.863C57.9911 24.5452 59.5463 24.0759 60.5489 23.1578C61.6744 22.1172 62.2269 20.7502 62.2269 19.0159C62.2064 17.2408 61.5925 15.833 60.3443 14.7924Z" fill="black"/>
<path d="M68.9182 13.5886H64.8256V29.5644H73.645V25.9326H68.9182V13.5886Z" fill="black"/>
<path d="M81.5845 23.9943L83.2624 18.5466L84.9199 23.9943H81.5845ZM81.6254 13.5886L75.2206 29.544H79.6201L80.459 27.218H86.0249L86.8025 29.544H91.2429L84.879 13.5886H81.6254Z" fill="black"/>
<path d="M97.3407 13.5886H93.2687V29.544H97.3407V13.5886Z" fill="black"/>
<path d="M106.672 25.9327H104.912V17.2001H106.692C107.94 17.2001 108.902 17.5878 109.577 18.3631C110.253 19.1384 110.58 20.2198 110.58 21.6276C110.58 24.5045 109.27 25.9327 106.672 25.9327ZM113.199 16.588C112.647 15.8127 112.012 15.2006 111.255 14.7517C110.028 13.9764 108.35 13.6091 106.222 13.6091H100.84V29.5645H107.122C109.393 29.5645 111.214 28.83 112.585 27.361C113.956 25.8919 114.652 23.9536 114.652 21.5256C114.652 19.5873 114.161 17.9346 113.199 16.588Z" fill="black"/>
<path d="M24.0027 35.563L28.4431 31.1966L34.0089 36.8484L27.0516 38.6439L24.0027 35.563ZM8.69663 36.6443L14.3648 31.0946L18.7438 35.5221L15.6335 38.5622L8.69663 36.6443ZM31.1032 28.6054L35.5436 24.2391L38.5925 27.32L36.669 34.2367L31.1032 28.6054ZM17.0249 28.483L21.4653 24.1167L25.8443 28.5442L21.4039 32.9105L17.0249 28.483ZM4.2767 27.0548L7.36656 24.0147L11.7456 28.4422L6.07741 33.9919L4.2767 27.0548ZM24.1255 21.5051L28.5658 17.1388L32.9448 21.5663L28.5045 25.9326L24.1255 21.5051ZM10.0267 21.403L14.4671 17.0367L18.8461 21.4643L14.4057 25.8306L10.0267 21.403ZM17.1272 14.4251L21.5676 10.0588L25.9466 14.4863L21.5062 18.8526L17.1272 14.4251ZM31.226 14.5475L36.8941 8.99783L38.6949 15.935L35.605 18.9751L31.226 14.5475ZM4.35855 15.6493L6.28204 8.73258L11.8479 14.3843L7.40748 18.7506L4.35855 15.6493ZM24.2278 7.46758L27.3176 4.42748L34.2545 6.3454L28.5863 11.8951L24.2278 7.46758ZM8.94218 6.14136L15.8995 4.34587L18.9484 7.42677L14.508 11.7931L8.94218 6.14136ZM17.0658 0.183594L3.84699 3.61135L0.204637 16.7307L4.7678 21.3418L0.14325 25.8918L3.58097 39.0723L16.7384 42.7041L21.363 38.1542L25.9262 42.7653L39.145 39.3376L42.7874 26.1978L38.2242 21.6275L42.8488 17.0775L39.411 3.897L26.2536 0.265207L21.629 4.81515L17.0658 0.183594Z" fill="black"/>
</svg>

<svg width="115" height="43" fill="none" xmlns="http://www.w3.org/2000/svg"><path d="M55.76 20.934h-1.657V17.2h1.494c1.8 0 2.721.633 2.721 1.877-.02 1.245-.859 1.857-2.557 1.857Zm4.584-6.142c-.961-.795-2.599-1.203-4.91-1.203h-5.24v15.955h3.91v-4.999h1.759c2.128 0 3.683-.47 4.686-1.387 1.125-1.04 1.678-2.408 1.678-4.142-.02-1.775-.634-3.183-1.883-4.224ZM68.918 13.589h-4.092v15.975h8.819v-3.631h-4.727V13.589ZM81.585 23.994l1.677-5.447 1.658 5.447h-3.335Zm.04-10.405-6.404 15.955h4.4l.838-2.326h5.566l.777 2.326h4.44L84.88 13.589h-3.254ZM97.34 13.589H93.27v15.955h4.072V13.589ZM106.672 25.933h-1.76V17.2h1.78c1.248 0 2.21.388 2.885 1.163.676.775 1.003 1.857 1.003 3.265 0 2.877-1.31 4.305-3.908 4.305Zm6.527-9.345c-.552-.775-1.187-1.387-1.944-1.836-1.227-.776-2.905-1.143-5.033-1.143h-5.382v15.955h6.282c2.271 0 4.092-.734 5.463-2.203 1.371-1.47 2.067-3.407 2.067-5.835 0-1.939-.491-3.591-1.453-4.938ZM24.003 35.563l4.44-4.366 5.566 5.651-6.957 1.796-3.05-3.081ZM8.697 36.644l5.668-5.55 4.379 4.428-3.11 3.04-6.937-1.918Zm22.406-8.039 4.44-4.366 3.05 3.081-1.924 6.917-5.566-5.632Zm-14.078-.122 4.44-4.366 4.38 4.427-4.441 4.366-4.38-4.427ZM4.277 27.055l3.09-3.04 4.379 4.427-5.669 5.55-1.8-6.937Zm19.848-5.55 4.44-4.366 4.38 4.427-4.44 4.367-4.38-4.428Zm-14.098-.102 4.44-4.366 4.38 4.427-4.441 4.367-4.38-4.428Zm7.1-6.978 4.44-4.366 4.38 4.427-4.44 4.367-4.38-4.428Zm14.099.122 5.668-5.55 1.8 6.938-3.089 3.04-4.379-4.428ZM4.359 15.65l1.923-6.916 5.566 5.651-4.44 4.367-3.05-3.102Zm19.869-8.181 3.09-3.04 6.936 1.917-5.668 5.55-4.358-4.427ZM8.942 6.14 15.9 4.346l3.05 3.08-4.441 4.367-5.566-5.652ZM17.066.184 3.847 3.61.205 16.731l4.563 4.61-4.625 4.55 3.438 13.181 13.157 3.632 4.625-4.55 4.563 4.611 13.219-3.427 3.642-13.14-4.563-4.57 4.625-4.55L39.41 3.897 26.254.265l-4.625 4.55L17.066.184Z" fill="#000"/></svg>
